; generated by PrusaSlicer 2.2.0+win64 on 2020-05-28 at 02:40:13 UTC


;
;

;
;
; 

; external perimeters extrusion width = 0.65mm
; perimeters extrusion width = 0.65mm
; infill extrusion width = 0.65mm
; solid infill extrusion width = 0.65mm
; top infill extrusion width = 0.60mm
; first layer extrusion width = 0.65mm

M73 P0 R13
M201 X1000 Y1000 Z1000 E5000 ; sets maximum accelerations, mm/sec^2
M203 X200 Y200 Z12 E120 ; sets maximum feedrates, mm/sec
M204 P1250 R1250 T1250 ; sets acceleration (P, T) and retract acceleration (R), mm/sec^2
M205 X8.00 Y8.00 Z0.40 E4.50 ; sets the jerk limits, mm/sec
M205 S0 T0 ; sets the minimum extruding and travel feed rate, mm/sec
M107
M117 Heating... ;Put printing message on LCD screen
M300 S2500 P100; Beep
M204 T1250 ; sets acceleration (P, T) and retract acceleration (R), mm/sec^2
M221 S100 ; Set flow
M104 S140 ; set extruder temp
M140 S80 ; set bed temp

;G1 Z50 ; this is a good start heating position
G28 X Y; Home X Y
G1 Y10 ; this is a good start heating position
M84 ; disable motors

M109 S140; wait for extruder temp
M190 S80 ; wait for bed temp

; Auto Leveling
M280 P0 S160 ; BLTouch alarm release
G4 P100 ; delay for BLTouch
G28 ; home
G29 ; auto bed leveling ONLY UNCOMMENT THIS IF BED LEVELING WITH BLTOUCH REMOVE
M500 ; ONLY UNCOMMENT THIS IF BED LEVELING WITH BLTOUCH REMOVE
;M420 S1 ; Load Saved Eeprom From Auto Level

M104 S225 ; set extruder temp

; Start of print
G21; metric values
G90 ; absolute positioning
M83 ; use relative distances for extrusion

; You may want to adjust the X and Y here so the nozzle is really above the bed!
G1 X0 Y0 F7200 ; Move to a position in the left front of the bed
G1 Z0.6; Move nozzle above 0.6 mm of the bed
G91 ; Use relative mode

M109 S225 ; wait for extruder temp

; now print a line of filament to prepare extrusion
G1 F1800 E3
M73 P0 R13
G1 Y40 E20 F1000 ; prints a line in the front
G1 Y40 E20 F800 ; prints a line in the front

; Done with the dancing :)
G92 E0 ; Set extrusion distance to 0
G90 ; switch back to absolute mode

M117 Printing... ;Put printing message on LCD screen
; Start of actual GCode for the print
G21 ; set units to millimeters
G90 ; use absolute coordinates
M83 ; use relative distances for extrusion
M900 K45; Filament gcode
;BEFORE_LAYER_CHANGE
G92 E0.0
;Layer 0
;0.3mm
;Printing layer 0 at 0.3mm


G1 E-0.60000 F2100.00000
G1 Z0.600 F10800.000
;AFTER_LAYER_CHANGE
G92 E0.0
;Layer 0
;0.3mm
;Printing layer 0 at 0.3mm


G1 X87.459 Y106.022
G1 Z0.300
G1 E0.60000 F2100.00000
M204 S1000
G1 F1200.000
G1 X87.699 Y105.322 E0.05407
G1 X88.127 Y104.718 E0.05407
G1 X88.709 Y104.260 E0.05407
G1 X89.396 Y103.986 E0.05407
G1 X89.995 Y103.914 E0.04400
G1 X130.004 Y103.914 E2.92236
G1 X130.965 Y104.101 E0.07153
G1 X131.785 Y104.630 E0.07124
G1 X132.351 Y105.424 E0.07124
G1 X132.582 Y106.371 E0.07124
G1 X132.533 Y114.021 E0.55873
G1 X132.287 Y114.707 E0.05321
G1 X131.859 Y115.297 E0.05321
G1 X131.281 Y115.746 E0.05350
G1 X130.604 Y116.014 E0.05321
G1 X130.005 Y116.086 E0.04400
G1 X89.885 Y116.083 E2.93048
G1 X89.072 Y115.913 E0.06067
G1 X88.354 Y115.494 E0.06067
G1 X87.807 Y114.870 E0.06067
G1 X87.486 Y114.104 E0.06067
G1 X87.414 Y113.509 E0.04372
G1 X87.458 Y106.112 E0.54033
G1 F8640.000
G1 X87.699 Y105.322 E-0.19076
G1 X88.127 Y104.718 E-0.17094
G1 X88.709 Y104.260 E-0.17094
G1 X88.859 Y104.200 E-0.03736
G1 E-0.03000 F2100.00000
G1 Z0.900 F10800.000
G1 X91.111 Y107.611
G1 Z0.300
G1 E0.60000 F2100.00000
G1 F1200.000
G1 X128.889 Y107.611 E2.75942
G1 X128.889 Y112.389 E0.34905
G1 X91.111 Y112.389 E2.75942
G1 X91.111 Y107.701 E0.34248
G1 X90.525 Y107.025 F10800.000
G1 F1200.000
G1 X129.475 Y107.025 E2.84497
G1 X129.475 Y112.975 E0.43460
G1 X90.525 Y112.975 E2.84497
G1 X90.525 Y107.115 E0.42802
G1 X91.124 Y107.055 F10800.000
G1 F8640.000
G1 X92.994 Y107.109 E-0.57000
G1 E-0.03000 F2100.00000
G1 Z0.900 F10800.000
G1 X128.714 Y108.987
G1 Z0.300
G1 E0.60000 F2100.00000
G1 F1200.000
G1 X127.777 Y108.050 E0.09812
G1 X126.937 Y108.050 E0.06215
G1 X128.450 Y109.563 E0.15841
G1 X128.450 Y110.402 E0.06215
G1 X126.098 Y108.050 E0.24630
G1 X125.258 Y108.050 E0.06215
G1 X128.450 Y111.242 E0.33419
G1 X128.450 Y111.950 E0.05245
G1 X128.319 Y111.950 E0.00970
G1 X124.419 Y108.050 E0.40836
G1 X123.579 Y108.050 E0.06215
G1 X127.480 Y111.950 E0.40836
G1 X126.640 Y111.950 E0.06215
G1 X122.740 Y108.050 E0.40836
G1 X121.901 Y108.050 E0.06215
G1 X125.801 Y111.950 E0.40836
G1 X124.961 Y111.950 E0.06215
G1 X121.061 Y108.050 E0.40836
G1 X120.222 Y108.050 E0.06215
G1 X124.122 Y111.950 E0.40836
G1 X123.283 Y111.950 E0.06215
G1 X119.382 Y108.050 E0.40836
G1 X118.543 Y108.050 E0.06215
G1 X122.443 Y111.950 E0.40836
G1 X121.604 Y111.950 E0.06215
G1 X117.703 Y108.050 E0.40836
G1 X116.864 Y108.050 E0.06215
G1 X120.764 Y111.950 E0.40836
G1 X119.925 Y111.950 E0.06215
G1 X116.024 Y108.050 E0.40836
G1 X115.185 Y108.050 E0.06215
G1 X119.085 Y111.950 E0.40836
G1 X118.246 Y111.950 E0.06215
G1 X114.346 Y108.050 E0.40836
G1 X113.506 Y108.050 E0.06215
G1 X117.406 Y111.950 E0.40836
G1 X116.567 Y111.950 E0.06215
G1 X112.667 Y108.050 E0.40836
G1 X111.827 Y108.050 E0.06215
G1 X115.728 Y111.950 E0.40836
G1 X114.888 Y111.950 E0.06215
G1 X110.988 Y108.050 E0.40836
G1 X110.148 Y108.050 E0.06215
G1 X114.049 Y111.950 E0.40836
G1 X113.209 Y111.950 E0.06215
G1 X109.309 Y108.050 E0.40836
G1 X108.470 Y108.050 E0.06215
G1 X112.370 Y111.950 E0.40836
G1 X111.530 Y111.950 E0.06215
G1 X107.630 Y108.050 E0.40836
G1 X106.791 Y108.050 E0.06215
G1 X110.691 Y111.950 E0.40836
G1 X109.852 Y111.950 E0.06215
G1 X105.951 Y108.050 E0.40836
G1 X105.112 Y108.050 E0.06215
G1 X109.012 Y111.950 E0.40836
G1 X108.173 Y111.950 E0.06215
G1 X104.272 Y108.050 E0.40836
G1 X103.433 Y108.050 E0.06215
G1 X107.333 Y111.950 E0.40836
G1 X106.494 Y111.950 E0.06215
G1 X102.593 Y108.050 E0.40836
G1 X101.754 Y108.050 E0.06215
G1 X105.654 Y111.950 E0.40836
G1 X104.815 Y111.950 E0.06215
G1 X100.915 Y108.050 E0.40836
G1 X100.075 Y108.050 E0.06215
G1 X103.975 Y111.950 E0.40836
G1 X103.136 Y111.950 E0.06215
G1 X99.236 Y108.050 E0.40836
G1 X98.396 Y108.050 E0.06215
G1 X102.297 Y111.950 E0.40836
G1 X101.457 Y111.950 E0.06215
G1 X97.557 Y108.050 E0.40836
G1 X96.717 Y108.050 E0.06215
G1 X100.618 Y111.950 E0.40836
G1 X99.778 Y111.950 E0.06215
G1 X95.878 Y108.050 E0.40836
G1 X95.039 Y108.050 E0.06215
G1 X98.939 Y111.950 E0.40836
G1 X98.099 Y111.950 E0.06215
G1 X94.199 Y108.050 E0.40836
G1 X93.360 Y108.050 E0.06215
G1 X97.260 Y111.950 E0.40836
G1 X96.421 Y111.950 E0.06215
G1 X92.520 Y108.050 E0.40836
G1 X91.681 Y108.050 E0.06215
G1 X95.581 Y111.950 E0.40836
G1 X94.742 Y111.950 E0.06215
G1 X91.550 Y108.758 E0.33418
G1 X91.550 Y109.598 E0.06215
G1 X93.902 Y111.950 E0.24630
G1 X93.063 Y111.950 E0.06215
G1 X91.550 Y110.437 E0.15841
G1 X91.550 Y111.277 E0.06215
G1 X92.487 Y112.214 E0.09811
;BEFORE_LAYER_CHANGE
G92 E0.0
;Layer 1
;0.5mm
;Printing layer 1 at 0.5mm


G1 F8640.000
G1 X91.550 Y111.277 E-0.30599
G1 X91.550 Y110.437 E-0.19383
G1 X91.765 Y110.652 E-0.07018
G1 E-0.03000 F2100.00000
G1 Z0.900 F10800.000
;AFTER_LAYER_CHANGE
G92 E0.0
;Layer 1
;0.5mm
;Printing layer 1 at 0.5mm


M104 S230 ; set temperature
M140 S85 ; set bed temperature
G1 X87.807 Y114.870
G1 Z0.500
G1 E0.60000 F2100.00000
G1 F3000.000
G1 X87.486 Y114.104 E0.04193
G1 X87.414 Y113.509 E0.03021
G1 X87.459 Y106.022 E0.37796
G1 X87.699 Y105.322 E0.03737
G1 X88.127 Y104.718 E0.03737
G1 X88.709 Y104.260 E0.03737
G1 X89.396 Y103.986 E0.03737
G1 X89.995 Y103.914 E0.03041
G1 X130.004 Y103.914 E2.01963
G1 X130.965 Y104.101 E0.04943
G1 X131.785 Y104.630 E0.04923
G1 X132.351 Y105.424 E0.04923
G1 X132.582 Y106.371 E0.04923
G1 X132.533 Y114.021 E0.38614
G1 X132.287 Y114.707 E0.03677
G1 X131.859 Y115.297 E0.03677
G1 X131.281 Y115.746 E0.03697
G1 X130.604 Y116.014 E0.03677
G1 X130.005 Y116.086 E0.03041
G1 X89.885 Y116.083 E2.02525
G1 X89.072 Y115.913 E0.04193
G1 X88.354 Y115.494 E0.04193
G1 X87.866 Y114.937 E0.03739
G1 F8640.000
G1 X87.486 Y114.104 E-0.21161
G1 X87.414 Y113.509 E-0.13820
G1 X87.420 Y112.556 E-0.22020
G1 E-0.03000 F2100.00000
G1 Z1.100 F10800.000
G1 X90.932 Y112.568
G1 Z0.500
G1 E0.60000 F2100.00000
M204 S800
G1 F2700.000
G1 X90.932 Y107.432 E0.25925
G1 X129.068 Y107.432 E1.92505
G1 X129.068 Y112.568 E0.25925
G1 X91.022 Y112.568 E1.92051
M204 S1000
G1 X90.325 Y113.175 F10800.000
M204 S800
G1 F2100.000
G1 X90.325 Y106.825 E0.32054
G1 X129.675 Y106.825 E1.98634
G1 X129.675 Y113.175 E0.32054
G1 X90.415 Y113.175 E1.98180
M204 S1000
G1 X90.597 Y112.640 F10800.000
G1 F8640.000
G1 X90.380 Y110.707 E-0.57000
G1 E-0.03000 F2100.00000
G1 Z1.100 F10800.000
G1 X127.640 Y112.386
G1 Z0.500
G1 E0.60000 F2100.00000
G1 F3000.000
G1 X128.613 Y111.414 E0.07039
G1 X128.613 Y110.543 E0.04458
G1 X127.043 Y112.113 E0.11365
G1 X126.172 Y112.113 E0.04458
G1 X128.613 Y109.672 E0.17669
G1 X128.613 Y108.801 E0.04458
G1 X125.301 Y112.113 E0.23973
G1 X124.431 Y112.113 E0.04458
G1 X128.613 Y107.931 E0.30277
G1 X128.613 Y107.887 E0.00222
G1 X127.785 Y107.887 E0.04236
G1 X123.560 Y112.113 E0.30590
G1 X122.689 Y112.113 E0.04458
G1 X126.915 Y107.887 E0.30590
G1 X126.044 Y107.887 E0.04458
G1 X121.819 Y112.113 E0.30590
G1 X120.948 Y112.113 E0.04458
G1 X125.173 Y107.887 E0.30590
G1 X124.302 Y107.887 E0.04458
G1 X120.077 Y112.113 E0.30590
G1 X119.207 Y112.113 E0.04458
G1 X123.432 Y107.887 E0.30590
G1 X122.561 Y107.887 E0.04458
G1 X118.336 Y112.113 E0.30590
G1 X117.465 Y112.113 E0.04458
G1 X121.690 Y107.887 E0.30590
G1 X120.820 Y107.887 E0.04458
G1 X116.594 Y112.113 E0.30590
G1 X115.724 Y112.113 E0.04458
G1 X119.949 Y107.887 E0.30590
G1 X119.078 Y107.887 E0.04458
G1 X114.853 Y112.113 E0.30590
G1 X113.982 Y112.113 E0.04458
G1 X118.207 Y107.887 E0.30590
G1 X117.337 Y107.887 E0.04458
G1 X113.112 Y112.113 E0.30590
G1 X112.241 Y112.113 E0.04458
G1 X116.466 Y107.887 E0.30590
G1 X115.595 Y107.887 E0.04458
G1 X111.370 Y112.113 E0.30590
G1 X110.499 Y112.113 E0.04458
G1 X114.725 Y107.887 E0.30590
G1 X113.854 Y107.887 E0.04458
G1 X109.629 Y112.113 E0.30590
G1 X108.758 Y112.113 E0.04458
G1 X112.983 Y107.887 E0.30590
G1 X112.113 Y107.887 E0.04458
G1 X107.887 Y112.113 E0.30590
G1 X107.017 Y112.113 E0.04458
G1 X111.242 Y107.887 E0.30590
G1 X110.371 Y107.887 E0.04458
G1 X106.146 Y112.113 E0.30590
G1 X105.275 Y112.113 E0.04458
G1 X109.500 Y107.887 E0.30590
G1 X108.630 Y107.887 E0.04458
G1 X104.404 Y112.113 E0.30590
G1 X103.534 Y112.113 E0.04458
G1 X107.759 Y107.887 E0.30590
G1 X106.888 Y107.887 E0.04458
G1 X102.663 Y112.113 E0.30590
G1 X101.792 Y112.113 E0.04458
G1 X106.018 Y107.887 E0.30590
G1 X105.147 Y107.887 E0.04458
G1 X100.922 Y112.113 E0.30590
G1 X100.051 Y112.113 E0.04458
G1 X104.276 Y107.887 E0.30590
G1 X103.405 Y107.887 E0.04458
G1 X99.180 Y112.113 E0.30590
G1 X98.310 Y112.113 E0.04458
G1 X102.535 Y107.887 E0.30590
G1 X101.664 Y107.887 E0.04458
G1 X97.439 Y112.113 E0.30590
G1 X96.568 Y112.113 E0.04458
G1 X100.793 Y107.887 E0.30590
G1 X99.923 Y107.887 E0.04458
G1 X95.697 Y112.113 E0.30590
G1 X94.827 Y112.113 E0.04458
G1 X99.052 Y107.887 E0.30590
G1 X98.181 Y107.887 E0.04458
G1 X93.956 Y112.113 E0.30590
G1 X93.085 Y112.113 E0.04458
G1 X97.311 Y107.887 E0.30590
G1 X96.440 Y107.887 E0.04458
G1 X92.215 Y112.113 E0.30590
G1 X91.387 Y112.113 E0.04235
G1 X91.387 Y112.069 E0.00223
G1 X95.569 Y107.887 E0.30276
G1 X94.698 Y107.887 E0.04458
G1 X91.387 Y111.198 E0.23972
G1 X91.387 Y110.328 E0.04458
G1 X93.828 Y107.887 E0.17668
G1 X92.957 Y107.887 E0.04458
G1 X91.387 Y109.457 E0.11364
G1 X91.387 Y108.586 E0.04458
G1 X92.359 Y107.614 E0.07038
;BEFORE_LAYER_CHANGE
G92 E0.0
;Layer 2
;0.7mm
;Printing layer 2 at 0.7mm


G1 F8640.000
G1 X91.387 Y108.586 E-0.31744
G1 X91.387 Y109.457 E-0.20105
G1 X91.545 Y109.299 E-0.05151
G1 E-0.03000 F2100.00000
G1 Z1.100 F10800.000
;AFTER_LAYER_CHANGE
G92 E0.0
;Layer 2
;0.7mm
;Printing layer 2 at 0.7mm


G1 X87.459 Y106.022
G1 Z0.700
G1 E0.60000 F2100.00000
G1 F3000.000
G1 X87.699 Y105.322 E0.03737
G1 X88.127 Y104.718 E0.03737
G1 X88.709 Y104.260 E0.03737
G1 X89.396 Y103.986 E0.03737
G1 X89.995 Y103.914 E0.03041
G1 X130.004 Y103.914 E2.01963
G1 X130.965 Y104.101 E0.04943
G1 X131.785 Y104.630 E0.04923
G1 X132.351 Y105.424 E0.04923
G1 X132.582 Y106.371 E0.04923
G1 X132.533 Y114.021 E0.38614
G1 X132.287 Y114.707 E0.03677
G1 X131.859 Y115.297 E0.03677
G1 X131.281 Y115.746 E0.03697
G1 X130.604 Y116.014 E0.03677
G1 X130.005 Y116.086 E0.03041
G1 X89.885 Y116.083 E2.02525
G1 X89.072 Y115.913 E0.04193
G1 X88.354 Y115.494 E0.04193
G1 X87.807 Y114.870 E0.04193
G1 X87.486 Y114.104 E0.04193
G1 X87.414 Y113.509 E0.03021
G1 X87.458 Y106.112 E0.37342
G1 F8640.000
G1 X87.699 Y105.322 E-0.19076
G1 X88.127 Y104.718 E-0.17094
G1 X88.709 Y104.260 E-0.17094
G1 X88.859 Y104.200 E-0.03736
G1 E-0.03000 F2100.00000
G1 Z1.300 F10800.000
G1 X90.932 Y107.432
G1 Z0.700
G1 E0.60000 F2100.00000
M204 S800
G1 F2700.000
G1 X129.068 Y107.432 E1.92505
G1 X129.068 Y112.568 E0.25925
G1 X90.932 Y112.568 E1.92505
G1 X90.932 Y107.522 E0.25471
M204 S1000
G1 X90.325 Y106.825 F10800.000
M204 S800
G1 F2100.000
G1 X129.675 Y106.825 E1.98634
G1 X129.675 Y113.175 E0.32054
M73 P8 R12
G1 X90.325 Y113.175 E1.98634
G1 X90.325 Y106.915 E0.31600
M204 S1000
G1 X90.924 Y106.857 F10800.000
G1 F8640.000
G1 X92.794 Y106.909 E-0.57000
G1 E-0.03000 F2100.00000
G1 Z1.300 F10800.000
G1 X128.888 Y108.741
G1 Z0.700
G1 E0.60000 F2100.00000
G1 F2400.000
G1 X128.009 Y107.862 E0.05773
G1 X127.219 Y107.862 E0.03670
G1 X128.638 Y109.281 E0.09317
G1 X128.638 Y110.071 E0.03670
G1 X126.429 Y107.862 E0.14508
G1 X125.639 Y107.862 E0.03670
G1 X128.638 Y110.861 E0.19698
G1 X128.638 Y111.651 E0.03670
G1 X124.849 Y107.862 E0.24889
G1 X124.059 Y107.862 E0.03670
G1 X128.334 Y112.138 E0.28087
G1 X127.544 Y112.138 E0.03670
G1 X123.269 Y107.862 E0.28087
G1 X122.479 Y107.862 E0.03670
G1 X126.754 Y112.138 E0.28087
G1 X125.964 Y112.138 E0.03670
G1 X121.689 Y107.862 E0.28087
G1 X120.899 Y107.862 E0.03670
G1 X125.174 Y112.138 E0.28087
G1 X124.384 Y112.138 E0.03670
G1 X120.109 Y107.862 E0.28087
G1 X119.319 Y107.862 E0.03670
G1 X123.594 Y112.138 E0.28087
G1 X122.804 Y112.138 E0.03670
G1 X118.528 Y107.862 E0.28087
G1 X117.738 Y107.862 E0.03670
G1 X122.014 Y112.138 E0.28087
G1 X121.224 Y112.138 E0.03670
G1 X116.948 Y107.862 E0.28087
G1 X116.158 Y107.862 E0.03670
G1 X120.433 Y112.138 E0.28087
G1 X119.643 Y112.138 E0.03670
G1 X115.368 Y107.862 E0.28087
G1 X114.578 Y107.862 E0.03670
G1 X118.853 Y112.138 E0.28087
G1 X118.063 Y112.138 E0.03670
G1 X113.788 Y107.862 E0.28087
G1 X112.998 Y107.862 E0.03670
G1 X117.273 Y112.138 E0.28087
G1 X116.483 Y112.138 E0.03670
G1 X112.208 Y107.862 E0.28087
G1 X111.418 Y107.862 E0.03670
G1 X115.693 Y112.138 E0.28087
G1 X114.903 Y112.138 E0.03670
G1 X110.628 Y107.862 E0.28087
G1 X109.838 Y107.862 E0.03670
G1 X114.113 Y112.138 E0.28087
G1 X113.323 Y112.138 E0.03670
G1 X109.047 Y107.862 E0.28087
G1 X108.257 Y107.862 E0.03670
G1 X112.533 Y112.138 E0.28087
G1 X111.743 Y112.138 E0.03670
G1 X107.467 Y107.862 E0.28087
G1 X106.677 Y107.862 E0.03670
G1 X110.952 Y112.138 E0.28087
G1 X110.162 Y112.138 E0.03670
G1 X105.887 Y107.862 E0.28087
G1 X105.097 Y107.862 E0.03670
G1 X109.372 Y112.138 E0.28087
G1 X108.582 Y112.138 E0.03670
G1 X104.307 Y107.862 E0.28087
G1 X103.517 Y107.862 E0.03670
G1 X107.792 Y112.138 E0.28087
G1 X107.002 Y112.138 E0.03670
G1 X102.727 Y107.862 E0.28087
G1 X101.937 Y107.862 E0.03670
G1 X106.212 Y112.138 E0.28087
G1 X105.422 Y112.138 E0.03670
G1 X101.147 Y107.862 E0.28087
G1 X100.356 Y107.862 E0.03670
G1 X104.632 Y112.138 E0.28087
G1 X103.842 Y112.138 E0.03670
G1 X99.566 Y107.862 E0.28087
G1 X98.776 Y107.862 E0.03670
G1 X103.052 Y112.138 E0.28087
G1 X102.261 Y112.138 E0.03670
G1 X97.986 Y107.862 E0.28087
G1 X97.196 Y107.862 E0.03670
G1 X101.471 Y112.138 E0.28087
G1 X100.681 Y112.138 E0.03670
G1 X96.406 Y107.862 E0.28087
G1 X95.616 Y107.862 E0.03670
G1 X99.891 Y112.138 E0.28087
G1 X99.101 Y112.138 E0.03670
G1 X94.826 Y107.862 E0.28087
G1 X94.036 Y107.862 E0.03670
G1 X98.311 Y112.138 E0.28087
G1 X97.521 Y112.138 E0.03670
G1 X93.246 Y107.862 E0.28087
G1 X92.456 Y107.862 E0.03670
G1 X96.731 Y112.138 E0.28087
G1 X95.941 Y112.138 E0.03670
